symbolic/64x64/mimetypes/rpm.svg

<svg xmlns="http://www.w3.org/2000/svg" width="64" height="64" version="1">
 <rect style="opacity:0.2" width="57" height="57" x="-61" y="-61" rx="2.85" ry="2.85" transform="matrix(0,-1,-1,0,0,0)"/>
 <rect style="fill:#ee4a58" width="57" height="57" x="-60" y="-61" rx="2.85" ry="2.85" transform="matrix(0,-1,-1,0,0,0)"/>
 <path style="opacity:0.2" d="m 7,25 v 14 h 3 v -5 -3 -2 -1 h 6.666016 c 0.36111,0 0.67361,0.14844 0.9375,0.445312 C 17.751894,28.612239 17.85284,28.798496 17.917969,29 H 21 V 27.800781 C 21,27.042448 20.722135,26.386197 20.167969,25.832031 19.628385,25.277865 18.972135,25 18.199219,25 18,25 7,25 7,25 Z m 16,0 v 14 h 3 V 35.400391 C 26,35.021225 26.132031,34.6931 26.394531,34.416016 26.671615,34.138932 27.006641,34 27.400391,34 h 6.798828 c 0.772916,0 1.429166,-0.26901 1.96875,-0.808594 C 36.722135,32.63724 37,31.972135 37,31.199219 V 27.800781 C 37,27.027865 36.722135,26.371615 36.167969,25.832031 35.613803,25.277865 34.957552,25 34.199219,25 Z m 16,0 v 14 h 3 V 29.400391 C 42,29.021225 42.140345,28.6931 42.408203,28.416016 42.690941,28.138932 43.031809,28 43.433594,28 h 2.142578 c 0.386904,0 0.721168,0.138935 1.003906,0.416016 C 46.862817,28.6931 46.999831,29.021225 47,29.400391 V 39 h 3 V 29.400391 C 50,29.021225 50.161831,28.6931 50.429688,28.416016 50.712426,28.138932 51.055245,28 51.457031,28 h 2.119141 c 0.386904,0 0.721167,0.138935 1.003906,0.416016 C 54.862817,28.6931 54.999831,29.021225 55,29.400391 V 39 h 3 V 27.800781 C 58,27.042448 57.717819,26.386197 57.152344,25.832031 56.601748,25.277865 55.931268,25 55.142578,25 Z m -11.666016,3 h 5.332032 c 0.36111,0 0.67361,0.14844 0.9375,0.445312 C 33.867405,28.742188 34,29.093751 34,29.5 34,29.921875 33.867402,30.281249 33.603516,30.578125 33.339626,30.859375 33.027126,31 32.666016,31 H 27.333984 C 26.958984,31 26.63889,30.859375 26.375,30.578125 26.125,30.281249 26,29.921875 26,29.5 26,29.093751 26.125,28.742189 26.375,28.445312 26.63889,28.148438 26.958984,28 27.333984,28 Z"/>
 <path style="fill:#ffffff" d="m 7,24 v 14 h 3 v -5 -3 -2 -1 h 6.666016 c 0.36111,0 0.67361,0.14844 0.9375,0.445312 C 17.751894,27.612239 17.85284,27.798496 17.917969,28 H 21 V 26.800781 C 21,26.042448 20.722135,25.386197 20.167969,24.832031 19.628385,24.277865 18.972135,24 18.199219,24 18,24 7,24 7,24 Z m 16,0 v 14 h 3 V 34.400391 C 26,34.021225 26.132031,33.6931 26.394531,33.416016 26.671615,33.138932 27.006641,33 27.400391,33 h 6.798828 c 0.772916,0 1.429166,-0.26901 1.96875,-0.808594 C 36.722135,31.63724 37,30.972135 37,30.199219 V 26.800781 C 37,26.027865 36.722135,25.371615 36.167969,24.832031 35.613803,24.277865 34.957552,24 34.199219,24 Z m 16,0 v 14 h 3 V 28.400391 C 42,28.021225 42.140345,27.6931 42.408203,27.416016 42.690941,27.138932 43.031809,27 43.433594,27 h 2.142578 c 0.386904,0 0.721168,0.138935 1.003906,0.416016 C 46.862817,27.6931 46.999831,28.021225 47,28.400391 V 38 h 3 V 28.400391 C 50,28.021225 50.161831,27.6931 50.429688,27.416016 50.712426,27.138932 51.055245,27 51.457031,27 h 2.119141 c 0.386904,0 0.721167,0.138935 1.003906,0.416016 C 54.862817,27.6931 54.999831,28.021225 55,28.400391 V 38 h 3 V 26.800781 C 58,26.042448 57.717819,25.386197 57.152344,24.832031 56.601748,24.277865 55.931268,24 55.142578,24 Z m -11.666016,3 h 5.332032 c 0.36111,0 0.67361,0.14844 0.9375,0.445312 C 33.867405,27.742188 34,28.093751 34,28.5 34,28.921875 33.867402,29.281249 33.603516,29.578125 33.339626,29.859375 33.027126,30 32.666016,30 H 27.333984 C 26.958984,30 26.63889,29.859375 26.375,29.578125 26.125,29.281249 26,28.921875 26,28.5 26,28.093751 26.125,27.742189 26.375,27.445312 26.63889,27.148438 26.958984,27 27.333984,27 Z"/>
 <path style="fill:#ffffff;opacity:0.2" d="M 6.8496094 3 C 5.2707094 3 4 4.2707094 4 5.8496094 L 4 6.8496094 C 4 5.2707094 5.2707094 4 6.8496094 4 L 58.150391 4 C 59.729291 4 61 5.2707094 61 6.8496094 L 61 5.8496094 C 61 4.2707094 59.729291 3 58.150391 3 L 6.8496094 3 z"/>
</svg>

<svg xmlns="http://www.w3.org/2000/svg" width="64" height="64" version="1"><rect style="opacity:.2" width="57" height="57" x="-61" y="-61" rx="2.85" ry="2.85" transform="matrix(0 -1 -1 0 0 0)"/><rect style="fill:#ee4a58" width="57" height="57" x="-60" y="-61" rx="2.85" ry="2.85" transform="matrix(0 -1 -1 0 0 0)"/><path style="opacity:.2" d="M7 25v14h3V28h6.666c.361 0 .674.148.938.445.148.167.249.353.314.555H21v-1.2c0-.758-.278-1.414-.832-1.968A2.645 2.645 0 0 0 18.199 25H7zm16 0v14h3v-3.6a1.384 1.384 0 0 1 1.4-1.4h6.8a2.68 2.68 0 0 0 1.968-.809A2.72 2.72 0 0 0 37 31.2v-3.398c0-.773-.278-1.43-.832-1.969-.554-.554-1.21-.832-1.969-.832zm16 0v14h3v-9.6a1.41 1.41 0 0 1 1.434-1.4h2.142c.387 0 .721.139 1.004.416.283.277.42.605.42.984V39h3v-9.6c0-.379.162-.707.43-.984A1.415 1.415 0 0 1 51.457 28h2.12c.386 0 .72.139 1.003.416.283.277.42.605.42.984V39h3V27.8c0-.758-.282-1.414-.848-1.968a2.728 2.728 0 0 0-2.01-.832zm-11.666 3h5.332c.361 0 .674.148.938.445.263.297.396.649.396 1.055 0 .422-.133.781-.396 1.078a1.244 1.244 0 0 1-.938.422h-5.332c-.375 0-.695-.14-.959-.422A1.618 1.618 0 0 1 26 29.5c0-.406.125-.758.375-1.055.264-.297.584-.445.959-.445z"/><path style="fill:#fff" d="M7 24v14h3V27h6.666c.361 0 .674.148.938.445.148.167.249.353.314.555H21v-1.2c0-.758-.278-1.414-.832-1.968A2.645 2.645 0 0 0 18.199 24H7zm16 0v14h3v-3.6a1.384 1.384 0 0 1 1.4-1.4h6.8a2.68 2.68 0 0 0 1.968-.809A2.72 2.72 0 0 0 37 30.2v-3.398c0-.773-.278-1.43-.832-1.969-.554-.554-1.21-.832-1.969-.832zm16 0v14h3v-9.6a1.41 1.41 0 0 1 1.434-1.4h2.142c.387 0 .721.139 1.004.416.283.277.42.605.42.984V38h3v-9.6c0-.379.162-.707.43-.984A1.415 1.415 0 0 1 51.457 27h2.12c.386 0 .72.139 1.003.416.283.277.42.605.42.984V38h3V26.8c0-.758-.282-1.414-.848-1.968a2.728 2.728 0 0 0-2.01-.832zm-11.666 3h5.332c.361 0 .674.148.938.445.263.297.396.649.396 1.055 0 .422-.133.781-.396 1.078a1.244 1.244 0 0 1-.938.422h-5.332c-.375 0-.695-.14-.959-.422A1.618 1.618 0 0 1 26 28.5c0-.406.125-.758.375-1.055.264-.297.584-.445.959-.445z"/><path style="fill:#fff;opacity:.2" d="M6.85 3A2.843 2.843 0 0 0 4 5.85v1C4 5.27 5.27 4 6.85 4h51.3C59.73 4 61 5.27 61 6.85v-1C61 4.27 59.73 3 58.15 3H6.85z"/></svg>
